X: 503
T:Once More I Hail Thee!
M:3/4
L:1/8
B:O'Neill's 503
N:"Moderate" "collected by Walsh"
Z:Transcribed by Dave Wooldridge
K:F
F2 F2 (Ac) | d2 d2 (fd) | cA F2 (3AGF | (F{GF}E) D2 (CD/2E/2) |
{G}F2 F>G Ac | d3 (d fe) | {d}cA F2 AG | G4 F z ||
f2 (fedc) | (^cd) d2 (fd) | =cA F2 (3AGF | (F{GF}E) D2 C2  |
F2 F2 (Ac) | {c}d2 d2 fd | cA F2 A>G | G4 F z ||


